svgs/sharp-light/cash-register.svg

<svg xmlns="http://www.w3.org/2000/svg" viewBox="0 0 512 512"><!--! Font Awesome Pro 6.6.0 by @fontawesome - https://fontawesome.com License - https://fontawesome.com/license (Commercial License) Copyright 2024 Fonticons, Inc. --><path d="M64 32l0 64 224 0 0-64L64 32zM32 0L64 0 288 0l32 0 0 32 0 64 0 32-32 0-96 0 0 32 288 0 32 224 0 96 0 32-32 0L32 512 0 512l0-32 0-96L32 160l128 0 0-32-96 0-32 0 0-32 0-64L32 0zM480 480l0-64L32 416l0 64 448 0zM452.2 192L59.8 192 32.3 384l447.3 0L452.2 192zM136 224l0 48-48 0 0-48 48 0zm48 0l48 0 0 48-48 0 0-48zm0 128l-48 0 0-48 48 0 0 48zm96-128l48 0 0 48-48 0 0-48zm0 80l0 48-48 0 0-48 48 0zm96-80l48 0 0 48-48 0 0-48zm0 80l0 48-48 0 0-48 48 0z"/></svg>

<svg xmlns="http://www.w3.org/2000/svg" viewBox="0 0 512 512"><!--! Font Awesome Pro 6.4.0 by @fontawesome - https://fontawesome.com License - https://fontawesome.com/license (Commercial License) Copyright 2023 Fonticons, Inc. --><path d="M64 32V96H288V32H64zM32 0H64 288h32V32 96v32H288 192v32H480l32 224v96 32H480 32 0V480 384L32 160H160V128H64 32V96 32 0zM480 480V416H32v64H480zM452.2 192H59.8L32.3 384H479.7L452.2 192zM136 224v48H88V224h48zm48 0h48v48H184V224zm0 128H136V304h48v48zm96-128h48v48H280V224zm0 80v48H232V304h48zm96-80h48v48H376V224zm0 80v48H328V304h48z"/></svg>
